X:2944
T:Fairy, The
M:4/4
L:1/8
R:reel
K:Gmaj
B2 BA GBdB | cBAG FGAc | BG G2 dcAg | fgaf gfed |
dBBA GBdB | cBAG FGAc | BG G2 cBAG |1 FGAF G3 A :|2 FGAF G2 Bc ||
|: d2 dg e2 ed | cA A2 d2 dc |  BG G2 dcAg | fgaf gfed |
dBdg e2 ed | X:135
T:Fairy Dance, The
C:Nathaniel Gow
S:Peter Hardie's MSS, via Scottish Country Dance Book 3
Z:Nigel Gatherer
M:4/4
L:1/8
K:D
f2 fd f2 fd|f2 fd cAec|f2 fd gfed|1cABc d2 de:|2cABc defg|]
a2 af b2 ba|gfge a2 ag|fefd B2 ge|cABc defg|
a2 af b2 ba|gfge a2 ag|fefd B2 ge|cABc d2 z2|]cA A2 d2 dc | BG G2 cBAG |1 FGAF G3 A :|2 FGAF G4  ||
